X:19
T:Bride's Favourite
Z: id:dc-jig-15
M:6/8
L:1/8
K:G Major
zD|G3 BAB|GBd gdB|AFA cBA|GBd gdB|!
G3 BAB|GBd gdB|AFA cBA|AGF G:|!
Bd|g2a f2a|gdB GBd|gfe fed|egf e2f|!
g2a f2a|gdB GAB|AFA cBA|AGF G:|!
zD|GBd gfg|edc BcA|GBd g3|faf g2a|!
bgb afa|geg fdf|ed^c def|gaf g:|!

